symbolic/32x32/places/folder-red-pictures-open.svg

<svg xmlns="http://www.w3.org/2000/svg" width="32" height="32" version="1">
 <rect style="opacity:0.2" width="28" height="18" x="2" y="11" rx="1.4" ry="1.4"/>
 <path style="fill:#bf4b4b" d="M 2,22.6 C 2,23.376 2.6244,24 3.4,24 H 28.6 C 29.376,24 30,23.376 30,22.6 V 7.4 C 30,6.6244 29.376,6 28.6,6 H 16 C 13.9,6 13.2,3 11.1,3 H 3.4 C 2.6244,3 2,3.6244 2,4.4"/>
 <rect style="opacity:0.2" width="28" height="15" x="2" y="12" rx="1.4" ry="1.4"/>
 <rect style="fill:#e4e4e4" width="24" height="11" x="4" y="8" rx="1.4" ry="1.4"/>
 <rect style="fill:#e25252" width="28" height="15" x="2" y="13" rx="1.4" ry="1.4"/>
 <path style="opacity:0.1;fill:#ffffff" d="M 3.4004,3 C 2.6248,3 2,3.6248 2,4.4004 V 5.4004 C 2,4.6248 2.6248,4 3.4004,4 H 11.1 C 13.2,4 13.9,7 16,7 H 28.6 C 29.375,7 30,7.6248 30,8.4004 V 7.4004 C 30,6.6248 29.375,6 28.6,6 H 16 C 13.9,6 13.2,3 11.1,3 Z"/>
 <path style="fill:#4f1d1d" d="M 11.699,16 C 11.311,16 11,16.311 11,16.699 v 6.602 C 11,23.689 11.311,24 11.699,24 h 8.602 C 20.689,24 21,23.689 21,23.301 V 16.699 C 21,16.311 20.689,16 20.301,16 Z m 2.301,3 3,3 1.5,-2 1.5,2 v 1 h -8 v -2 z"/>
</svg>

<svg xmlns="http://www.w3.org/2000/svg" width="32" height="32" version="1"><rect style="opacity:.2" width="28" height="18" x="2" y="11" rx="1.4" ry="1.4"/><path style="fill:#bf4b4b" d="M2 22.6c0 .776.624 1.4 1.4 1.4h25.2c.776 0 1.4-.624 1.4-1.4V7.4c0-.776-.624-1.4-1.4-1.4H16c-2.1 0-2.8-3-4.9-3H3.4C2.624 3 2 3.624 2 4.4"/><rect style="opacity:.2" width="28" height="15" x="2" y="12" rx="1.4" ry="1.4"/><rect style="fill:#e4e4e4" width="24" height="11" x="4" y="8" rx="1.4" ry="1.4"/><rect style="fill:#e25252" width="28" height="15" x="2" y="13" rx="1.4" ry="1.4"/><path style="opacity:.1;fill:#fff" d="M3.4 3C2.625 3 2 3.625 2 4.4v1C2 4.625 2.625 4 3.4 4h7.7c2.1 0 2.8 3 4.9 3h12.6c.775 0 1.4.625 1.4 1.4v-1c0-.775-.625-1.4-1.4-1.4H16c-2.1 0-2.8-3-4.9-3z"/><path style="fill:#4f1d1d" d="M11.699 16a.697.697 0 0 0-.699.699v6.602c0 .388.311.699.699.699h8.602a.697.697 0 0 0 .699-.699v-6.602a.697.697 0 0 0-.699-.699zM14 19l3 3 1.5-2 1.5 2v1h-8v-2z"/></svg>
